!!!OTL: ES WOLLT EIN VOGEL HOCHZEIT MACHEN
!!!ARE: Europa, Mitteleuropa, Deutschland, Danzig
!!!SCT: E0163A
!!!YEM: Copyright 1995, estate of Helmut Schaffrath.
**kern
*ICvox
*Ivox
*M2/4
*k[f#]
*G:
{8d
=1
8g
8a
8b
8cc
=2
8dd
8dd
8dd
8dd}
=3
{8ee
8cc
8gg
8ee
=4
8ee
8dd
8dd
8r}
=5
{8cc
8cc
4cc
=6
8b
8b
4b}
=7
{8a
8b
8cc
8a
=8
8a
8g
8g}
==
!!!AGN: erzaehlendes Volks - Lied, Sage, Tier - Maerchen, Ballade ?
!!!ONB: ESAC (Essen Associative Code) Database: ERK1
!!!AMT: simple duple
!!!AIN: vox
!!!EED: Helmut Schaffrath
!!!EEV: 1.0
*-
